X:40
T:Bright Fine Gold
M:c
Q:150
C:Music reconstructed by Neil Colquhoun 1965
L:1/4
K:D
&quot;D&quot;A A A B| F D2 D|&quot;Bm&quot;A2 A B|F4|
W:Spend it     in     the          win - ter     or             die    in     the            cold
 &quot;D&quot;A A A  B|&quot;G&quot; F E D E|&quot;E&quot;(F E) (D B,) |&quot;G&quot;(D2 E) z||
W:One   a    peck - er,          Tu - a   -  pe  -    ka,           bright---   fine---               gold---
F2 A,2|D4|(F D) B,2|D4|
W:Bright    fine                      gold,                     bright---              fine                      gold
 A A A  B| F E D E|(F E) (D B,) |D4 ||
W:One    a    peck - er,            Tu  -   a   -  pe  -  ka,           bright---     fine---                gold.
